src/content/resume/images/tipi.svg

<svg width="128" height="64" viewBox="0 0 128 64" fill="none" xmlns="http://www.w3.org/2000/svg">
<circle opacity="0.3" cx="43.3334" cy="26.6667" r="10.6666" fill="currentColor"/>
<circle opacity="0.5" cx="32.6667" cy="37.3335" r="10.6666" fill="currentColor"/>
<path fill-rule="evenodd" clip-rule="evenodd" d="M34.0938 32.0002C33.1862 30.4313 32.6667 28.6097 32.6667 26.6669C34.6096 26.6669 36.4311 27.1863 38.0001 28.0939C39.569 27.1863 41.3905 26.6669 43.3334 26.6669C43.3334 28.6097 42.8139 30.4313 41.9064 32.0002C42.8139 33.5691 43.3334 35.3906 43.3334 37.3335C41.3905 37.3335 39.569 36.8141 38.0001 35.9065C36.4311 36.8141 34.6096 37.3335 32.6667 37.3335C32.6667 35.3906 33.1862 33.5691 34.0938 32.0002Z" fill="currentColor"/>
<path fill-rule="evenodd" clip-rule="evenodd" d="M79.0478 25.3424C80.2694 25.3424 81.2597 24.352 81.2597 23.1304C81.2597 21.9088 80.2694 20.9185 79.0478 20.9185C77.8261 20.9185 76.8358 21.9088 76.8358 23.1304C76.8358 24.352 77.8261 25.3424 79.0478 25.3424ZM66.4388 24.4105C66.3062 24.6226 66.2355 24.8679 66.2355 25.1183V27.6484C66.2355 27.6484 64.5765 27.6482 63.8466 27.6504C63.55 27.6504 63.2609 27.7465 63.024 27.9245C62.2377 28.5162 61.9185 29.585 62.3119 30.5364L66.2355 30.5359V34.9986C66.2355 36.2866 66.3049 37.7652 67.1804 38.8049C68.2845 40.1154 69.9332 40.6015 71.5908 40.6425C72.0131 40.6529 72.9147 40.5878 73.4661 40.4589C73.6487 40.4024 73.7998 40.272 73.8822 40.0993C74.3189 39.1951 74.0436 38.0826 73.1921 37.4924C72.2438 37.7632 70.7819 37.7786 70.0685 36.9936C69.7011 36.5352 69.6482 35.9551 69.6482 35.3923V30.5359C69.6482 30.5359 71.8339 30.5362 72.6902 30.5341C72.9868 30.5342 73.2759 30.438 73.5128 30.26C74.299 29.6683 74.619 28.5994 74.2249 27.6481L69.6482 27.6484V23.4011C68.4603 22.9085 67.089 23.3717 66.4388 24.4105ZM77.5573 28.1713C77.4206 28.3854 77.3485 28.634 77.3485 28.8879V40.3801H80.7605V27.1604C79.5706 26.6674 78.2247 27.1196 77.5573 28.1713ZM100.845 28.888C100.845 28.6341 100.917 28.3853 101.053 28.1711C101.721 27.1195 103.067 26.6674 104.257 27.1604V40.3801H100.845V28.888ZM84.9156 28.1413C84.7762 28.3569 84.702 28.6082 84.702 28.865V46.984C85.8913 47.4767 87.2365 47.0254 87.9046 45.975C88.042 45.7599 88.1148 45.5102 88.1148 45.2552V39.4877C89.1118 40.2577 90.2496 40.6427 91.5275 40.6427C92.4723 40.6427 93.3732 40.4502 94.2309 40.0652C95.0885 39.6801 95.7972 39.1551 96.3575 38.4902C96.8649 37.9126 97.2584 37.2432 97.5385 36.4819C97.8187 35.7207 97.9588 34.9025 97.9588 34.0275C97.9588 33.0825 97.7967 32.2075 97.4726 31.4024C97.1492 30.5974 96.7029 29.8974 96.1343 29.3024C95.5651 28.7074 94.9004 28.2392 94.1389 27.898C93.378 27.5567 92.5685 27.3861 91.7108 27.3861C90.9761 27.3861 90.2977 27.4998 89.6762 27.7273C89.0555 27.9549 88.491 28.2699 87.9829 28.6724V27.1894C86.8465 26.7185 85.5617 27.1443 84.9156 28.1413ZM94.5934 34.0222C94.5934 32.0924 93.0615 30.5258 91.1732 30.5258C89.2855 30.5258 87.7529 32.0924 87.7529 34.0222C87.7529 35.9519 89.2855 37.5185 91.1732 37.5185C93.0615 37.5185 94.5934 35.9519 94.5934 34.0222ZM104.756 23.1304C104.756 24.352 103.765 25.3424 102.544 25.3424C101.322 25.3424 100.332 24.352 100.332 23.1304C100.332 21.9088 101.322 20.9185 102.544 20.9185C103.765 20.9185 104.756 21.9088 104.756 23.1304Z" fill="currentColor"/>
</svg>

<svg xmlns="http://www.w3.org/2000/svg" width="128" height="64" fill="none" viewBox="0 0 128 64"><circle cx="43.333" cy="26.667" r="10.667" fill="currentColor" opacity=".3"/><circle cx="32.667" cy="37.334" r="10.667" fill="currentColor" opacity=".5"/><path fill="currentColor" fill-rule="evenodd" d="M34.094 32a10.617 10.617 0 0 1-1.427-5.333c1.943 0 3.764.52 5.333 1.427a10.617 10.617 0 0 1 5.333-1.427c0 1.943-.52 3.764-1.427 5.333a10.618 10.618 0 0 1 1.427 5.334c-1.942 0-3.764-.52-5.333-1.428a10.618 10.618 0 0 1-5.333 1.428c0-1.943.52-3.765 1.427-5.334ZM79.048 25.342a2.212 2.212 0 1 0 0-4.424 2.212 2.212 0 0 0 0 4.424Zm-12.61-.931a1.336 1.336 0 0 0-.203.707v2.53s-1.659 0-2.388.002a1.37 1.37 0 0 0-.823.274 2.213 2.213 0 0 0-.712 2.612h3.924v4.463c0 1.288.069 2.766.944 3.806 1.104 1.31 2.753 1.797 4.41 1.837.423.01 1.325-.054 1.876-.183a.686.686 0 0 0 .416-.36 2.077 2.077 0 0 0-.69-2.607c-.948.271-2.41.287-3.123-.498-.368-.459-.42-1.039-.42-1.602v-4.856s2.185 0 3.041-.002c.297 0 .586-.096.823-.274a2.212 2.212 0 0 0 .712-2.612h-4.577v-4.247c-1.188-.492-2.559-.03-3.21 1.01Zm11.12 3.76a1.331 1.331 0 0 0-.21.717V40.38h3.412V27.16a2.612 2.612 0 0 0-3.203 1.011Zm23.287.717c0-.254.072-.503.208-.717a2.614 2.614 0 0 1 3.204-1.01v13.22h-3.412V28.887Zm-15.93-.747c-.139.216-.213.467-.213.724v18.119a2.613 2.613 0 0 0 3.203-1.009c.137-.215.21-.465.21-.72v-5.767c.997.77 2.135 1.155 3.413 1.155.944 0 1.845-.193 2.703-.578.858-.385 1.566-.91 2.127-1.575.507-.577.9-1.247 1.18-2.008.28-.761.42-1.58.42-2.454 0-.945-.161-1.82-.485-2.626a6.525 6.525 0 0 0-1.339-2.1 6.296 6.296 0 0 0-1.995-1.404 5.865 5.865 0 0 0-2.428-.512c-.735 0-1.413.114-2.035.341a6.077 6.077 0 0 0-1.693.945V27.19a2.512 2.512 0 0 0-3.067.952Zm9.678 5.881c0-1.93-1.532-3.496-3.42-3.496s-3.42 1.566-3.42 3.496 1.532 3.497 3.42 3.497 3.42-1.567 3.42-3.497Zm10.163-10.892a2.212 2.212 0 1 1-4.425 0 2.212 2.212 0 0 1 4.425 0Z" clip-rule="evenodd"/></svg>
